!!!!SEGMENT: pl-kk--kk-i-7--048-003_herissant-jehan--missa-fily-dei-sanctus.krn
!!!cenid: 16xx:858
!!!COM: Hérissant, Jehan
!!!COM-rismid: pe30105808
!!!CDT: <1550->1560
!!!CNT: French
!!!OTL: Missa Fily Dei – Sanctus
!!!PDT:
!!!AGN: Sacred; Mass
!!!SMS-siglum: PL-Kk
!!!SMS-shelfmark: Kk.I.7
!!!SMS-shelfwork: 048-003 M
!!!SMS-variant:
!!!SMS-altvar:
!!!NIFC-rismid: 300258125
!!!URL-scan: http://repozytorium.nifc.pl/skany/pl-kk-nut--i-7
!!!ONB-nifc: UWAGA: C (skan 0043-0044, s.80-83), A (0127-0128, s.74-77), T(0203-0205, s.70-73), B(0292-0293, s.71-73). Części Mszy: 1. Kyrie, 2. Et in terra, 3. Sanctus, 4. Agnus Dei. "Benedictus" głosu T rozpisane na luźnej kartce włożonej między strony 72-73
**kern	**text	**kern	**text	**kern	**text	**kern	**text
*part4	*part4	*part3	*part3	*part2	*part2	*part1	*part1
*staff4	*staff4	*staff3	*staff3	*staff2	*staff2	*staff1	*staff1
*group1	*	*group1	*	*group1	*	*group1	*
*I"BASSVS.	*	*I"TENOR.	*	*I"ALTVS.	*	*I"CANTVS.	*
*I'B	*	*I'T	*	*I'A	*	*I'S	*
*>[A,B,C,D,C]	*	*>[A,B,C,D,C]	*	*>[A,B,C,D,C]	*	*>[A,B,C,D,C]	*
*>A	*	*>A	*	*>A	*	*>A	*
*clefF3	*	*clefC3	*	*clefC3	*	*clefC1	*
*k[b-]	*	*k[b-]	*	*k[b-]	*	*k[b-]	*
*F:	*	*F:	*	*F:	*	*F:	*
*M2/1	*	*M2/1	*	*M2/1	*	*M2/1	*
*met(C|)	*	*met(C|)	*	*met(C|)	*	*met(C|)	*
=1-	=1-	=1-	=1-	=1-	=1-	=1-	=1-
!LO:TX:t=P:problem:przy kluczu BB- B-	!	!	!	!	!	!	!
0F	San-	0A	San-	0f	San-	0cc	San-
=2-	=2-	=2-	=2-	=2-	=2-	=2-	=2-
*lig	*	*lig	*	*lig	*	*lig	*
1F	-ctus	1A	-ctus	1f	-ctus	1cc	-ctus
!LO:TX:t=P:problem:kreska pseudotaktowa	!	!	!	!LO:TX:t=P:problem:kreska pseudotaktowa	!	!	!
1G	.	1B-	.	1e	.	1b-	.
*Xlig	*	*Xlig	*	*Xlig	*	*Xlig	*
=3-	=3-	=3-	=3-	=3-	=3-	=3-	=3-
*	*ij	*	*	*	*	*	*ij
!	!	!	!	!LO:TX:t=P:problem:kreska pseudotaktowa	!	!	!
1.F	San-	1.c	San-	0f	San-	1.a	San-
*	*	*2\right	*	*	*	*2\right	*
!	!	!LO:TX:t=P:problem:kreska pseudotaktowa	!	!	!	!	!
2F/	-ctus	2d\	.	.	.	2a\	.
=4-	=4-	=4-	=4-	=4-	=4-	=4-	=4-
*lig	*	*	*	*	*	*	*
1C	San-	2e\	.	1g	.	2g\	.
.	.	2c\	.	.	.	1cc	.
*	*	*	*	*2\right	*	*	*
1G	.	1d	.	2.g\	.	.	.
!	!	!	!	!	!	!LO:SIC:v:s=2bn	!
.	.	.	.	.	.	2b-\	.
!	!	!	!	!LO:TX:t=P:problem:kreska pseudotaktowa	!	!	!
.	.	.	.	4f\	.	.	.
*Xlig	*	*	*	*	*	*	*
=5-	=5-	=5-	=5-	=5-	=5-	=5-	=5-
!LO:TX:t=P:problem:kreska pseudotaktowa	!	!	!	!	!	!LO:TX:t=P:problem:kreska pseudotaktowa	!
1C	-ctus	2c/	.	4e\	.	1cc	-ctus
*	*Xij	*	*	*	*	*	*Xij
.	.	.	.	4d\	.	.	.
.	.	1c	.	1e	.	.	.
!	!	!	!	!	!	!LO:TX:t=P:problem:kreska pseudotaktowa	!
1rF	.	.	.	.	.	1ree	.
.	.	2F/	.	1f	.	.	.
=6-	=6-	=6-	=6-	=6-	=6-	=6-	=6-
!	!	!LO:TX:t=P:problem:kreska pseudotaktowa	!	!	!	!	!
2r	.	1F	-ctus	.	.	1cc	San-
!	!	!	!	!LO:TX:t=P:problem:kreska pseudotaktowa	!	!	!
1c	San-	.	.	2c\	.	.	.
!	!	!LO:TX:t=P:problem:kreska pseudotaktowa	!	!	!	!	!
.	.	00r	.	2e\	.	2g\	.
*2\right	*	*	*	*	*	*	*
!LO:TX:t=P:problem:kreska pseudotaktowa	!	!	!	!	!	!	!
2G\	-ct(us)	.	.	4d\	.	2.b-\	.
.	.	.	.	4c\	.	.	.
=7-	=7-	=7-	=7-	=7-	=7-	=7-	=7-
*	*ij	*	*	*	*	*	*
1B-	San-	.	.	1d	.	.	.
.	.	.	.	.	.	4a\	.
.	.	.	.	.	.	1g	.
!	!	!	!	!LO:TX:t=P:problem:kreska pseudotaktowa	!	!	!
2A\	ct(us)	.	.	1c	-ctus	.	.
4G\	.	.	.	.	.	1f	.
4F\	.	.	.	.	.	.	.
=8-	=8-	=8-	=8-	=8-	=8-	=8-	=8-
1G	San-	.	.	0r	.	.	.
!	!	!	!	!	!	!LO:TX:t=P:problem:kreska pseudotaktowa	!
.	.	.	.	.	.	2e/	.
!LO:TX:t=P:problem:kreska pseudotaktowa	!	!	!	!	!	!	!
1F	.	2r	.	.	.	2f/	.
*	*	*	*ij	*	*	*	*
.	.	1c	San-	.	.	2.a\	.
=9-	=9-	=9-	=9-	=9-	=9-	=9-	=9-
!LO:TX:t=P:problem:kreska pseudotaktowa:między nutą a kropką	!	!	!	!LO:TX:t=P:problem:kreska pseudotaktowa	!	!	!
1.F	-ct(us)	.	.	1r	.	.	.
.	.	.	.	.	.	4g\	.
!	!	!LO:TX:t=P:problem:kreska pseudotaktowa	!	!	!	!	!
.	.	2F/	.	.	.	4a\	.
.	.	.	.	.	.	4b-\	.
!	!	!	!	!	!	!LO:TX:t=P:problem:kreska pseudotaktowa	!
.	.	1A	.	1.c	San-	1cc	-ctus
2C/	San-	.	.	.	.	.	.
=10-	=10-	=10-	=10-	=10-	=10-	=10-	=10-
*lig	*	*	*	*	*	*	*
1E	.	1G	.	.	.	1ree	.
.	.	.	.	2G/	.	.	.
1D	.	2F,</	-ctus	2.A/	.	2r	.
*	*	*	*Xij	*	*	*	*ij
.	.	1f	Do-	.	.	1a	San-
.	.	.	.	4B-/	.	.	.
*Xlig	*	*	*	*	*	*	*
=11-	=11-	=11-	=11-	=11-	=11-	=11-	=11-
!LO:TX:t=P:problem:kreska pseudotaktowa	!	!	!	!	!	!	!
1C	-ct(us)	.	.	1c	.	.	.
*	*Xij	*	*	*	*	*	*
!	!	!	!	!	!	!LO:TX:t=P:problem:kreska pseudotaktowa	!
.	.	2e\	-mi-	.	.	2g\	.
1rF	.	2f\	-n(us)	2F/	-ctus	2a\	.
!	!	!	!	!LO:TX:t=P:problem:kreska pseudotaktowa	!	!	!
.	.	2g\	DE-	2rA	.	2b-\	.
=12-	=12-	=12-	=12-	=12-	=12-	=12-	=12-
!	!	!	!	!	!	!LO:TX:t=P:problem:kreska pseudotaktowa	!
2r	.	2.f\	.	2rA	.	1cc	-ctus
*	*	*	*	*	*	*	*Xij
1F	Do-	.	.	1A	Do-	.	.
.	.	8e\L	.	.	.	.	.
.	.	8d\J	.	.	.	.	.
!	!	!LO:TX:t=P:problem:kreska pseudotaktowa	!	!	!	!	!
.	.	1c	-US	.	.	2r	.
!LO:TX:t=P:problem:kreska pseudotaktowa	!	!	!	!LO:TX:t=P:problem:kreska pseudotaktowa	!	!	!
2E/	-mi-	.	.	2G/	-mi-	1cc	Do-
=13-	=13-	=13-	=13-	=13-	=13-	=13-	=13-
!	!	!LO:TX:t=P:problem:kreska pseudotaktowa	!	!	!	!	!
2F,\	-n(us)	0r	.	2A/	-n(us)	.	.
2G\	De-	.	.	2B-/	De-	2b-\	-mi-
2F\	us	.	.	2c\	.	2a\	-n(us)
!LO:TX:t=P:problem:kreska pseudotaktowa	!	!	!	!LO:TX:t=P:problem:kreska pseudotaktowa	!	!	!
2E/	.	.	.	2c\	-us	2g\	DE-
=14-	=14-	=14-	=14-	=14-	=14-	=14-	=14-
!	!	!	!	!	!	!LO:TX:t=P:problem:kreska pseudotaktowa	!
2.D/	Sab-	2rA	.	2d\	Sab-	1f	-US
*	*	*	*ij	*	*	*	*
.	.	1A	DE-	1f	-ba-	.	.
4D/	-ba-	.	.	.	.	.	.
!LO:TX:t=P:problem:kreska pseudotaktowa	!	!	!	!	!	!	!
1C	-oth	.	.	.	.	1.cc	Sab-
.	.	2G/	.	2e\	.	.	.
=15-	=15-	=15-	=15-	=15-	=15-	=15-	=15-
!LO:SIC:v:t=custos c	!	!	!	!LO:TX:t=P:problem:kreska pseudotaktowa	!	!	!
!LO:TX:t=P:problem:kreska pseudotaktowa	!	!	!	!	!	!	!
1r	.	2A/	.	1f	-oth	.	.
.	.	2B-/	.	.	.	4b-\	.
.	.	.	.	.	.	4a\	.
!LO:LB:g=original	!	!	!	!LO:TX:t=P:problem:kreska pseudotaktowa	!	!	!
2r	.	1c,	-US	0rf	.	2g\	.
*	*	*	*Xij	*	*	*	*
!	!	!	!	!	!	!LO:SIC:v:t=custos a	!
!	!	!	!	!	!	!LO:TX:t=P:problem:kreska pseudotaktowa	!
1c\	Do-	.	.	.	.	2g\	.
!	!	!	!	!LO:LB:g=original	!	!LO:LB:g=original	!
=16-	=16-	=16-	=16-	=16-	=16-	=16-	=16-
.	.	2F/	Sab-	.	.	2a\	.
!LO:TX:t=P:problem:kreska pseudotaktowa	!	!	!	!	!	!	!
2B-\	-mi-	2G/	-ba-	.	.	2b-\	.
!	!	!LO:TX:t=P:problem:kreska pseudotaktowa	!	!	!	!	!
2c\	-n(us)	1F	-oth	2rf	.	2a\	.
2d\	DE-	.	.	1f	Do-	4g/	-ba-
.	.	.	.	.	.	4f/	.
!	!	!LO:LB:g=original	!	!	!	!	!
=17-	=17-	=17-	=17-	=17-	=17-	=17-	=17-
!LO:TX:t=P:problem:kreska pseudotaktowa	!	!	!	!	!	!LO:TX:t=P:problem:kreska pseudotaktowa	!
1c	-US	2r	.	.	.	1g	-oth.
!	!	!	!	!LO:TX:t=P:problem:kreska pseudotaktowa	!	!	!
.	.	1c	Do-	2e\	-mi-	.	.
2F\	Sab-	.	.	2f\	-n(us)	1ree	.
2G\	.	2B-/	-mi-	2d\	De-	.	.
=18-	=18-	=18-	=18-	=18-	=18-	=18-	=18-
2.F\	.	1c	-n(us)	1.f	-us	1a	Do-
4E/	.	.	.	.	.	.	.
2F\	.	1d	De-	.	.	2a\	-mi-
!LO:TX:t=P:problem:kreska pseudotaktowa	!	!	!	!	!	!	!
2G\	.	.	.	4e\	.	2b-\	-n(us)
!	!	!	!	!LO:TX:t=P:problem:kreska pseudotaktowa	!	!	!
.	.	.	.	4d\	.	.	.
=19-	=19-	=19-	=19-	=19-	=19-	=19-	=19-
2C/	.	2c/	-us	2e\	Sab-	2.cc\	DE-
1F	.	2A/	Sab-	1f	.	.	.
.	.	.	.	.	.	4cc\	-(us)
.	.	2A/	.	.	.	2cc\	Sab-
!LO:TX:t=P:problem:kreska pseudotaktowa	!	!	!	!	!	!LO:TX:t=P:problem:kreska pseudotaktowa	!
2G\	-ba-	2B-/	.	2d\	-ba-	2b-\	.
=20-	=20-	=20-	=20-	=20-	=20-	=20-	=20-
!	!	!	!	!LO:TX:t=P:problem:kreska pseudotaktowa	!	!	!
2F,\	-oth	2.c\	.	0f	-oth.	4a\	.
.	.	.	.	.	.	4g\	.
1F	D(o-	.	.	.	.	4a\	.
!	!	!LO:TX:t=P:problem:kreska pseudotaktowa	!	!	!	!	!
.	.	4c\	-ba-	.	.	4b-\	.
.	.	2c,\	-oth	.	.	2cc\	.
!LO:TX:t=P:problem:kreska pseudotaktowa	!	!	!	!	!	!LO:TX:t=P:problem:kreska pseudotaktowa	!
2BB-/	-mi)-	2B-/	Sab-	.	.	2dd\	.
=21-	=21-	=21-	=21-	=21-	=21-	=21-	=21-
1.F	-nus	4A/	.	2rf	.	2.cc\	.
.	.	4G/	.	.	.	.	.
.	.	4A/	.	1f	Sab-	.	.
.	.	4B-/	.	.	.	4b-\	.
.	.	2c/	.	.	.	2a\	.
2G\	De-	2.B-/	.	2d\	.	4b-\	.
.	.	.	.	.	.	4a\	.
=22-	=22-	=22-	=22-	=22-	=22-	=22-	=22-
2E-X/	-us	.	.	4e-X\	.	4g/	.
.	.	4A/	.	4d\	.	4f/	.
2F\	Sab-	4G/	.	4c\	.	1f	.
.	.	4F/	.	4B-\	.	.	.
1C	-ba-	1G	-ba-	1c	-ba-	.	.
.	.	.	.	.	.	2e/	-ba-
=23-	=23-	=23-	=23-	=23-	=23-	=23-	=23-
0lF;	-oth.	0lA;	-oth.	0lc;	-oth.	0lf;	-oth.
!LO:PB:g=original	!	!	!	!	!	!	!
=24||	=24||	=24||	=24||	=24||	=24||	=24||	=24||
*	*	*	*	*clefC1	*	*	*
*>B	*	*>B	*	*>B	*	*>B	*
*M2/1	*	*M2/1	*	*M2/1	*	*M2/1	*
*met(C|)	*	*met(C|)	*	*met(C|)	*	*met(C|)	*
!LO:TX:a:t=Pleni sunt\nTacet.	!	!LO:TX:t=P:problem:kreska pseudotaktowa	!	!LO:TX:a:t=à 3.	!	!LO:TX:t=P:problem:kreska pseudotaktowa	!
0ryy	.	0rc	.	1f	Ple-	1ree	.
.	.	.	.	2a\	-ni	1f	Ple-
.	.	.	.	2.cc\	sunt	.	.
=25-	=25-	=25-	=25-	=25-	=25-	=25-	=25-
0ryy	.	1F	Ple-	.	.	2a\	-ni
.	.	.	.	4b-\	.	.	.
.	.	.	.	4a\	.	2.cc\	sunt
!	!	!	!	!LO:TX:t=P:problem:kreska pseudotaktowa	!	!	!
.	.	.	.	4g\	.	.	.
.	.	2A/	-ni	2f/	cae-	.	.
.	.	.	.	.	.	4b-\	.
.	.	2.c/	sunt	4e/	.	2.g\	Cae-
.	.	.	.	4d/	.	.	.
=26-	=26-	=26-	=26-	=26-	=26-	=26-	=26-
0ryy	.	.	.	4e/	.	.	.
.	.	4B-/	.	4f/	.	4a\	.
.	.	1G	.	4g/	.	4b-\	.
!	!	!	!	!	!	!LO:TX:t=P:problem:kreska pseudotaktowa	!
.	.	.	.	4a/	.	4a\	.
.	.	.	.	2b-\	.	4g/	.
.	.	.	.	.	.	4f/	.
.	.	2A/	.	2a\	.	1f	.
=27-	=27-	=27-	=27-	=27-	=27-	=27-	=27-
!	!	!	!	!LO:TX:t=P:problem:kreska pseudotaktowa	!	!	!
0ryy	.	2B-/	cae-	1g	-li	.	.
!	!	!LO:TX:t=P:problem:kreska pseudotaktowa	!	!	!	!	!
.	.	2c/	.	.	.	2e/	.
.	.	2F/	-li	1ree	.	2f/	.
.	.	1c	Ple-	.	.	2g\	.
=28-	=28-	=28-	=28-	=28-	=28-	=28-	=28-
!	!	!	!	!	!	!LO:TX:t=P:problem:kreska pseudotaktowa	!
0ryy	.	.	.	2r	.	1a	-li
!	!	!	!	!LO:TX:t=P:problem:kreska pseudotaktowa	!	!	!
.	.	2d\	.	2f/	Ple-	.	.
!	!	!	!	!	!	!LO:LB:g=original	!
.	.	1f	-ni	2a\	-ni	2re	.
.	.	.	.	2.cc\	sunt	2f/	Ple-
=29-	=29-	=29-	=29-	=29-	=29-	=29-	=29-
0ryy	.	2.f\	sunt	.	.	2a\	-ni
.	.	.	.	4b-\	.	.	.
!	!	!	!	!LO:TX:t=P:problem:kreska pseudotaktowa	!	!	!
.	.	.	.	2a\	.	2.cc\	sunt
.	.	8e\L	.	.	.	.	.
.	.	8d\J	.	.	.	.	.
!	!	!	!	!LO:LB:g=original	!	!	!
.	.	2e\	cae-	2g\	cae-	.	.
.	.	.	.	.	.	4b-\	.
!	!	!LO:SIC:v:t=custos d	!	!	!	!	!
!	!	!LO:TX:t=P:problem:kreska pseudotaktowa	!	!	!	!	!
.	.	2f\	.	1cc	.	1a	cae-
!	!	!LO:LB:g=original	!	!	!	!	!
=30-	=30-	=30-	=30-	=30-	=30-	=30-	=30-
0ryy	.	1d	.	.	.	.	.
!	!	!	!	!LO:TX:t=P:problem:kreska pseudotaktowa	!	!	!
.	.	.	.	2b-\	.	4g/	.
.	.	.	.	.	.	4f/	.
.	.	2c\	-li	4cc\	.	2e/	.
.	.	.	.	4b-\	.	.	.
.	.	2.F/	Ple-	4a\	.	4f/	.
!	!	!	!	!	!	!LO:TX:t=P:problem:kreska pseudotaktowa	!
.	.	.	.	4g\	.	4g/	.
=31-	=31-	=31-	=31-	=31-	=31-	=31-	=31-
0ryy	.	.	.	2f/	.	4a\	.
.	.	4G/	.	.	.	4b-\	.
.	.	4A/	.	2.c/	.	2.cc\	.
.	.	4B-/	.	.	.	.	.
.	.	2.c/	-ni	.	.	.	.
.	.	.	.	4d/	.	4b-\	.
.	.	.	.	4e/	.	4g\	.
!	!	!	!	!	!	!LO:TX:t=P:problem:kreska pseudotaktowa	!
.	.	4B-/	.	4f/	.	4a\	.
=32-	=32-	=32-	=32-	=32-	=32-	=32-	=32-
0ryy	.	4G/	sunt	2g/	.	4b-\	.
.	.	4A/	.	.	.	4cc\	.
.	.	2.B-/	cae-	4f/	.	1dd	.
!	!	!	!	!LO:TX:t=P:problem:kreska pseudotaktowa	!	!	!
.	.	.	.	4e/	.	.	.
.	.	.	.	4f/	.	.	.
.	.	4c/	.	2e/	.	.	.
.	.	2A/	.	.	.	1cc	.
.	.	.	.	8d/L	.	.	.
.	.	.	.	8c/J	.	.	.
=33-	=33-	=33-	=33-	=33-	=33-	=33-	=33-
!	!	!LO:TX:t=P:problem:kreska pseudotaktowa	!	!	!	!	!
0ryy	.	1G	-li	2d/	-li	.	.
!	!	!	!	!LO:TX:t=P:problem:kreska pseudotaktowa	!	!LO:SIC:v:s=2bn	!
.	.	.	.	2g/	et	2b-\	.
!	!	!	!	!	!	!LO:TX:t=P:problem:kreska pseudotaktowa	!
.	.	2rA	.	2a\	ter-	1cc	-li
.	.	2c/	et	2.g/	.	.	.
=34-	=34-	=34-	=34-	=34-	=34-	=34-	=34-
0ryy	.	1c	ter-	.	.	2r	.
.	.	.	.	4e/	.	.	.
!	!	!	!	!LO:TX:t=P:problem:kreska pseudotaktowa:między nutą a kropką	!	!	!
.	.	.	.	2.a\	.	2cc\	et
.	.	2F/	-ra	.	.	2cc\	ter-
.	.	.	.	4g/	.	.	.
.	.	2B-/	et	4f/	.	2.dd\	-ra
.	.	.	.	4e/	.	.	.
=35-	=35-	=35-	=35-	=35-	=35-	=35-	=35-
0ryy	.	1B-	ter-	2d/	.	.	.
.	.	.	.	.	.	4cc\	.
.	.	.	.	4g/	.	4b-\	.
!	!	!	!	!	!	!LO:TX:t=P:problem:kreska pseudotaktowa	!
.	.	.	.	4f/	.	4a\	.
.	.	2.c/	.	4e/	.	2g\	et
.	.	.	.	4d/	.	.	.
!	!	!	!	!LO:TX:t=P:problem:kreska pseudotaktowa	!	!	!
.	.	.	.	2e/	.	2.cc\	ter-
.	.	4B-/	.	.	.	.	.
=36-	=36-	=36-	=36-	=36-	=36-	=36-	=36-
0ryy	.	4A/	.	2c,</	-ra	.	.
.	.	4G/	.	.	.	4b-\	.
.	.	1F	.	2cc\	et	4a\	.
!	!	!	!	!	!	!LO:TX:t=P:problem:kreska pseudotaktowa	!
.	.	.	.	.	.	4g\	.
.	.	.	.	2cc\	ter-	2a\	.
.	.	4B-/	.	1dd	.	2.b-\	.
!	!	!LO:TX:t=P:problem:kreska pseudotaktowa	!	!	!	!	!
.	.	4c/	.	.	.	.	.
=37-	=37-	=37-	=37-	=37-	=37-	=37-	=37-
0ryy	.	4d\	.	.	.	.	.
.	.	4e\	.	.	.	8a\L	.
.	.	.	.	.	.	8g\J	.
!	!	!	!	!LO:TX:t=P:problem:kreska pseudotaktowa	!	!	!
.	.	1f	.	2cc\	.	4a\	.
.	.	.	.	.	.	4b-\	.
.	.	.	.	2b-\	.	1g	.
.	.	2e\	.	4a\	.	.	.
.	.	.	.	4g\	.	.	.
=38-	=38-	=38-	=38-	=38-	=38-	=38-	=38-
!	!	!	!	!	!	!LO:TX:t=P:problem:kreska pseudotaktowa	!
0ryy	.	4f\	.	4a\	.	1f	-ra
.	.	4e\	.	4g\	.	.	.
.	.	4d\	.	1cc	.	.	.
.	.	4c\	.	.	.	.	.
!	!	!LO:TX:t=P:problem:kreska pseudotaktowa	!	!	!	!	!
.	.	1d	-ra	.	.	2re	.
.	.	.	.	2b-\	.	1f/	glo-
=39-	=39-	=39-	=39-	=39-	=39-	=39-	=39-
!	!	!	!	!LO:TX:t=P:problem:kreska pseudotaktowa	!	!	!
0ryy	.	2r	.	1cc	-ra	.	.
.	.	1c	glo-	.	.	2e/	-ri-
.	.	.	.	1ree	.	2d/	-a
.	.	2B-/	-ri-	.	.	2d/	tu-
=40-	=40-	=40-	=40-	=40-	=40-	=40-	=40-
!	!	!	!	!	!	!LO:TX:t=P:problem:kreska pseudotaktowa	!
0ryy	.	2A/	-a	2r	.	0c	-a
.	.	4F/	.	1f	glo-	.	.
!	!	!LO:TX:t=P:problem:kreska pseudotaktowa	!	!	!	!	!
.	.	4G/	.	.	.	.	.
.	.	4A/	.	.	.	.	.
.	.	4B-/	.	.	.	.	.
!	!	!	!	!LO:SIC:v:t=custos d	!	!	!
!	!	!	!	!LO:TX:t=P:problem:kreska pseudotaktowa	!	!	!
.	.	1c	tu-	2e/	-ri-	.	.
!	!	!	!	!LO:LB:g=original	!	!	!
=41-	=41-	=41-	=41-	=41-	=41-	=41-	=41-
0ryy	.	.	.	2d/	-a	2re	.
.	.	2B-/	.	2d/	tu-	1f	glo-
!	!	!LO:TX:t=P:problem:kreska pseudotaktowa	!	!	!	!	!
.	.	1c	-a	2c,</	-a	.	.
!	!	!	!	!	!	!LO:SIC:v:t=custos d	!
!	!	!	!	!	!	!LO:TX:t=P:problem:kreska pseudotaktowa	!
.	.	.	.	1cc	glo-	2e/	-ri-
!	!	!	!	!	!	!LO:LB:g=original	!
=42-	=42-	=42-	=42-	=42-	=42-	=42-	=42-
0ryy	.	2r	.	.	.	2d/	-a
*	*	*	*ij	*	*	*	*
.	.	1f	glo-	2b-\	-ri-	2d/	tu-
.	.	.	.	2a\	-a	2c,</	-a
!	!	!	!	!LO:TX:t=P:problem:kreska pseudotaktowa	!	!	!
.	.	2e\	-ri-	2g\	tu-	1cc	glo-
=43-	=43-	=43-	=43-	=43-	=43-	=43-	=43-
0ryy	.	2d\	-a	2a\	.	.	.
!	!	!	!	!	!	!LO:TX:t=P:problem:kreska pseudotaktowa	!
.	.	2d\	tu-	1f	-a	2b-\	-ri-
!	!	!LO:SIC:v:t=custos F	!	!	!	!	!
!	!	!LO:TX:t=P:problem:kreska pseudotaktowa	!	!	!	!	!
.	.	1c	-a	.	.	2a\	-a
*	*	*	*Xij	*	*	*	*
.	.	.	.	2e/	glo-	2g\	tu-
!	!	!LO:LB:g=original	!	!	!	!	!
=44-	=44-	=44-	=44-	=44-	=44-	=44-	=44-
0ryy	.	2rA	.	4f/	.	2a\	-a
.	.	.	.	4g/	.	.	.
.	.	2.F/	glo-	4a/	ri-	4f/	glo-
.	.	.	.	4b-/	.	4g/	.
.	.	.	.	2cc\	-a	4a\	.
.	.	4G/	.	.	.	4b-\	.
.	.	4A/	.	2.c/	.	2.cc\	.
.	.	4B-/	.	.	.	.	.
=45-	=45-	=45-	=45-	=45-	=45-	=45-	=45-
0ryy	.	2.c/	.	.	.	.	.
.	.	.	.	4d/	.	4b-\	.
.	.	.	.	4e/	.	4g\	.
!	!	!LO:TX:t=P:problem:kreska pseudotaktowa	!	!LO:TX:t=P:problem:kreska pseudotaktowa	!	!LO:TX:t=P:problem:kreska pseudotaktowa	!
.	.	4B-/	.	4f/	.	4a\	.
.	.	4G/	.	2g/	.	1b-	.
.	.	4A/	.	.	.	.	.
.	.	4B-/	.	4d/	.	.	.
.	.	4c/	.	4e/	.	.	.
=46-	=46-	=46-	=46-	=46-	=46-	=46-	=46-
0ryy	.	4d\	.	4f/	.	2.a\	.
.	.	4e\	.	4g/	.	.	.
.	.	1f	.	4a/	.	.	.
!	!	!	!	!LO:TX:t=P:problem:kreska pseudotaktowa	!	!	!
.	.	.	.	4b-/	.	4g/	-ri-
.	.	.	.	4cc\	.	4a/	-â
.	.	.	.	4a\	.	4f/	.
.	.	2B-/	ri-	2b-\	.	1g\	tu-
=47-	=47-	=47-	=47-	=47-	=47-	=47-	=47-
0ryy	.	2c\	-a	2a\	.	.	.
.	.	2d\	tu-	4g/	.	1f	.
.	.	.	.	4f/	.	.	.
!	!	!LO:TX:t=P:problem:kreska pseudotaktowa	!	!	!	!	!
.	.	1c	-a	2g\	.	.	.
.	.	.	.	2.cc\	tu-	2e/	.
=48-	=48-	=48-	=48-	=48-	=48-	=48-	=48-
0ryy	.	2F/	tu-	.	.	[0lf	-â
.	.	.	.	4a\	.	.	.
!	!	!	!	!LO:TX:t=P:problem:kreska pseudotaktowa:między nutą a kropką	!	!	!
.	.	2.B-/	.	2.dd\	.	.	.
.	.	.	.	.	.	.	.
.	.	4A/	.	4cc\	.	.	.
.	.	2B-/	.	1b-	.	.	.
=49-	=49-	=49-	=49-	=49-	=49-	=49-	=49-
0ryy	.	0Fl;	-a.	.	.	0f];	.
.	.	.	.	4a\	.	.	.
.	.	.	.	4g\	.	.	.
.	.	.	.	1al;	-â.	.	.
!	!	!	!	!LO:LB:g=original	!	!	!
*	*	*	*	*clefC3	*	*	*
=50||	=50||	=50||	=50||	=50||	=50||	=50||	=50||
*>C	*	*>C	*	*>C	*	*>C	*
*M2/1	*	*M2/1	*	*M2/1	*	*M2/1	*
*met(C|)	*	*met(C|)	*	*met(C|)	*	*met(C|)	*
!LO:TX:t=P:problem:kreska pseudotaktowa	!	!LO:TX:t=P:problem:kreska pseudotaktowa	!	!LO:TX:t=P:problem:kreska pseudotaktowa	!	!	!
0r	.	0r	.	0r	.	0cc	O-
=51-	=51-	=51-	=51-	=51-	=51-	=51-	=51-
0F	O-	0.c	O-	0f	O-	0a	-san-
=52-	=52-	=52-	=52-	=52-	=52-	=52-	=52-
*	*	*	*	*	*	*lig	*
1C	-san-	.	.	1e	-san-	1g	-na
!	!	!	!	!LO:TX:t=P:problem:kreska pseudotaktowa	!	!LO:TX:t=P:problem:kreska pseudotaktowa	!
2.D/	-na	1.A	-san-	1d	-na	1f	.
4E/	.	.	.	.	.	.	.
*	*	*	*	*	*	*Xlig	*
=53-	=53-	=53-	=53-	=53-	=53-	=53-	=53-
2F/	.	.	.	2c\	.	1f	O-
2D/	.	2B-/	.	2d\	.	.	.
!LO:TX:t=P:problem:kreska pseudotaktowa	!	!	!	!	!	!	!
1C	.	1c	.	2G/	.	1e	-san-
.	.	.	.	1c	O-	.	.
=54-	=54-	=54-	=54-	=54-	=54-	=54-	=54-
!	!	!LO:TX:t=P:problem:kreska pseudotaktowa	!	!	!	!	!
2r	.	1F	-na	.	.	2f/	.
!	!	!	!	!LO:TX:t=P:problem:kreska pseudotaktowa	!	!	!
*	*ij	*	*	*	*	*	*
1F	O-	.	.	2c/	-san-	1a	.
*	*	*	*	*lig	*	*	*
.	.	1.A	in	1c	.	.	.
!	!	!	!	!	!	!LO:TX:t=P:problem:kreska pseudotaktowa	!
2F/	-san-	.	.	.	.	2a\	.
=55-	=55-	=55-	=55-	=55-	=55-	=55-	=55-
*lig	*	*	*	*	*	*lig	*
1F	.	.	.	1f	.	1cc	.
.	.	2A/	ex-	.	.	.	.
*	*	*	*	*Xlig	*	*	*
!	!	!	!	!	!	!LO:SIC:v:t=custos a	!
1G	.	1B-	-cel-	2.d\	.	1b-	.
.	.	.	.	4e\	.	.	.
*Xlig	*	*	*	*	*	*Xlig	*
!	!	!	!	!	!	!LO:LB:g=original	!
=56-	=56-	=56-	=56-	=56-	=56-	=56-	=56-
!LO:TX:t=P:problem:kreska pseudotaktowa	!	!	!	!LO:TX:t=P:problem:kreska pseudotaktowa	!	!	!
1F	-na	2.c/	.	1f	-na	2a\	.
*	*Xij	*	*	*	*	*	*
.	.	.	.	.	.	2cc,\	-na
.	.	4B-/	.	.	.	.	.
!LO:TX:t=P:problem:kreska pseudotaktowa	!	!	!	!	!	!	!
1rc	.	2A/	.	2rf	.	2cc\	in
.	.	2B-/	.	2f\	in	2f/	ex-
=57-	=57-	=57-	=57-	=57-	=57-	=57-	=57-
2r	.	4F/	.	2f\	ex-	1.a	-cel-
.	.	4G/	.	.	.	.	.
2F/	in	4A/	.	2.c\	-cel-	.	.
!	!	!LO:SIC:v:t=custos c	!	!	!	!	!
!	!	!LO:TX:t=P:problem:kreska pseudotaktowa	!	!	!	!	!
.	.	4B-/	.	.	.	.	.
!	!	!LO:LB:g=original	!	!	!	!	!
2F/	ex-	2c,/	-sis	.	.	.	.
.	.	.	.	4d\	.	.	.
2.C/	-cel-	2c/	O-	4e\	.	4g/	.
!	!	!	!	!LO:TX:t=P:problem:kreska pseudotaktowa	!	!LO:TX:t=P:problem:kreska pseudotaktowa	!
.	.	.	.	4f\	.	4f/	.
=58-	=58-	=58-	=58-	=58-	=58-	=58-	=58-
.	.	2c/	-san-	2g\	.	2e/	.
4D/	.	.	.	.	.	.	.
!	!	!LO:TX:t=P:problem:kreska pseudotaktowa	!	!	!	!	!
4E/	.	2G/	.	2e\	.	1g	.
!LO:TX:t=P:problem:kreska pseudotaktowa	!	!	!	!	!	!	!
4F/	.	.	.	.	.	.	.
2G\	.	1B-	-na	2d\	.	.	.
!	!	!	!	!	!	!LO:TX:t=P:problem:kreska pseudotaktowa	!
2E-X/	.	.	.	1g\	.	2g/	.
=59-	=59-	=59-	=59-	=59-	=59-	=59-	=59-
2F/	.	2A/	in	.	.	2a\	.
2D/	.	4G/	ex-	1f	.	2bn\	.
.	.	4F/	.	.	.	.	.
!	!	!	!	!	!	!LO:TX:t=P:problem:kreska pseudotaktowa	!
2C,</	-sis.	2G/	-cel-	.	.	[<1cc	.
!	!	!	!	!LO:TX:t=P:problem:kreska pseudotaktowa	!	!	!
2c\	O-	2A/	.	2e\	.	.	.
=60-	=60-	=60-	=60-	=60-	=60-	=60-	=60-
!	!	!LO:TX:t=P:problem:kreska pseudotaktowa	!	!	!	!	!
1c	-san-	1F	-ſis	2f,<\	-sis	2cc]	.
.	.	.	.	2c/	in	8cc\L	.
.	.	.	.	.	.	8b-y\	.
.	.	.	.	.	.	8a\	.
!	!	!	!	!	!	!LO:TX:t=P:problem:kreska pseudotaktowa	!
.	.	.	.	.	.	8g\J	.
!LO:TX:t=P:problem:kreska pseudotaktowa	!	!	!	!	!	!LO:TX:t=P:problem:kreska pseudotaktowa	!
1F	-na	2rf	.	2c/	ex-	1a	-sis.
*	*	*	*ij	*	*	*	*
.	.	2f\	O-	2A/	-cel-	.	.
=61-	=61-	=61-	=61-	=61-	=61-	=61-	=61-
1rF	.	1f	-san-	2B-/	-ſis	2rcc	.
.	.	.	.	4F/	in	2cc\	O-
!	!	!	!	!LO:TX:t=P:problem:kreska pseudotaktowa	!	!	!
.	.	.	.	4G/	.	.	.
!	!	!	!	!	!	!LO:TX:t=P:problem:kreska pseudotaktowa	!
2r	.	2c\	na	4A/	ex-	1cc	-san-
.	.	.	.	4B-/	.	.	.
!LO:TX:t=P:problem:kreska pseudotaktowa	!	!	!	!	!	!	!
2c\	in	1e	in	4c/	.	.	.
.	.	.	.	4d/	.	.	.
=62-	=62-	=62-	=62-	=62-	=62-	=62-	=62-
2c\	ex-	.	.	4e\	.	2g\	-na
.	.	.	.	4f\	.	.	.
2G\	-cel-	2e\	ex-	2g\	.	2.b-\	in
1B-	.	1d	-cel-	2f\	.	.	.
.	.	.	.	.	.	4a\	.
!	!	!	!	!LO:SIC:v:t=custos e	!	!	!
!	!	!	!	!LO:TX:t=P:problem:kreska pseudotaktowa	!	!	!
.	.	.	.	2d\	.	1g	ex-
!	!	!	!	!LO:PB:g=original	!	!	!
=63-	=63-	=63-	=63-	=63-	=63-	=63-	=63-
!	!	!LO:TX:t=P:problem:kreska pseudotaktowa	!	!	!	!	!
2A\	.	1c	-ſis	2e\	cel-	.	.
*	*	*	*Xij	*	*	*	*
4G\	.	.	.	2f\	.	1f	-cel-
4F\	.	.	.	.	.	.	.
!LO:SIC:v:t=custos F	!	!	!	!	!	!	!
!LO:TX:t=P:problem:kreska pseudotaktowa	!	!	!	!	!	!	!
1G	.	1ra	.	2d\	.	.	.
!	!	!	!	!	!	!LO:TX:t=P:problem:kreska pseudotaktowa	!
.	.	.	.	4c/	.	2e/	.
!	!	!	!	!LO:TX:t=P:problem:kreska pseudotaktowa	!	!	!
.	.	.	.	4B-/	.	.	.
!LO:LB:g=original	!	!	!	!	!	!	!
=64-	=64-	=64-	=64-	=64-	=64-	=64-	=64-
2.F/	.	2r	.	1A	.	2f/	.
.	.	2c/	in	.	.	4c/	.
4Eny/	.	.	.	.	.	4d/	.
4C/	.	2c/	ex-	2G,/	sis.	4e/	.
4D/	.	.	.	.	.	4f/	.
!	!	!	!	!	!	!LO:TX:t=P:problem:kreska pseudotaktowa	!
4E/	.	2G/	.	1G	O-	2g/	.
!LO:TX:t=P:problem:kreska pseudotaktowa	!	!	!	!	!	!	!
4F/	.	.	.	.	.	.	.
=65-	=65-	=65-	=65-	=65-	=65-	=65-	=65-
2G\	.	1B-	-cel-	.	.	2d/	.
!	!	!	!	!LO:TX:t=P:problem:kreska pseudotaktowa	!	!	!
2E-X/	.	.	.	2G/	-san-	2g/	.
2F/	.	2A/	.	2c/	.	2f/	.
2C/	.	2G/	.	2c/	-na	2e/	.
=66-	=66-	=66-	=66-	=66-	=66-	=66-	=66-
*	*	*lig	*	*	*	*	*
1D	.	1F	.	2A/	in	4d/	.
.	.	.	.	.	.	4c/	.
.	.	.	.	2B-/	ex-	1f	.
1C	.	1G	.	1c	-cel-	.	.
.	.	.	.	.	.	2e/	.
*	*	*Xlig	*	*	*	*	*
=67-	=67-	=67-	=67-	=67-	=67-	=67-	=67-
!LO:TX:t=P:problem:kreska pseudotaktowa	!	!LO:TX:t=P:problem:kreska pseudotaktowa	!	!LO:TX:t=P:problem:kreska pseudotaktowa	!	!LO:TX:t=P:problem:kreska pseudotaktowa	!
1F	-sis.	1F	-sis.	1A	ſis	1f	sis.
!	!	!	!	!	!	!LO:LB:g=original	!
0F	O-	0A	O-	0f	O-	0cc	O-
=68-	=68-	=68-	=68-	=68-	=68-	=68-	=68-
.	.	.	.	.	.	.	.
!	!	!	!	!LO:TX:t=P:problem:kreska pseudotaktowa	!	!	!
1G	-san-	1B-	-san-	1d	-san-	1b-	-san-
=69-	=69-	=69-	=69-	=69-	=69-	=69-	=69-
1.F	-na	1.c	-na	1.f	-na	1.a	-na
!LO:TX:t=P:problem:kreska pseudotaktowa	!	!	!	!	!	!	!
2F/	in	2d\	in	2f\	in	2a\	in
=70-	=70-	=70-	=70-	=70-	=70-	=70-	=70-
2c\	ex-	2e\	ex-	2g\	ex-	2g\	ex-
2A\	.	2c\	.	2f\	.	1cc	-cel-
1G	-cel-	1d	-cel-	1g	-cel-	.	.
!	!	!	!	!	!	!LO:SIC:v:s=2bn	!
!	!	!	!	!	!	!LO:TX:t=P:problem:kreska pseudotaktowa	!
.	.	.	.	.	.	2b-\	.
=71-	=71-	=71-	=71-	=71-	=71-	=71-	=71-
!LO:TX:t=P:problem:kreska pseudotaktowa	!	!LO:TX:t=P:problem:kreska pseudotaktowa	!	!LO:TX:t=P:problem:kreska pseudotaktowa	!	!LO:TX:t=P:problem:kreska pseudotaktowa	!
1C	-ſis	1c,<	-ſis.	1e	-ſis.	1cc,	-sis.
*	*ij	*	*ij	*	*	*	*
1D	O-	1.A	O-	2r	.	1.f	O-
.	.	.	.	1d	O-	.	.
=72-	=72-	=72-	=72-	=72-	=72-	=72-	=72-
1D	-san-	.	.	.	.	.	.
.	.	2A/	-san-	2d\	-san-	2f/	-san-
!LO:TX:t=P:problem:kreska pseudotaktowa	!	!	!	!	!	!	!
0BB-	-na	2.d\	-na	2.f\	-na	2.b-\	-na
!	!	!	!	!LO:TX:t=P:problem:kreska pseudotaktowa	!	!	!
.	.	4c/	.	4e\	.	4a\	.
=73-	=73-	=73-	=73-	=73-	=73-	=73-	=73-
.	.	2.B-/	in	1d	in	2g/	in
.	.	.	.	.	.	2f/	.
.	.	4A/	.	.	.	.	.
1.C	in	1.G	ex-	2c\	ex-	2e/	ex-
.	.	.	.	2.e\	-cel-	4c/	-cel-
!	!	!	!	!	!	!LO:TX:t=P:problem:kreska pseudotaktowa	!
.	.	.	.	.	.	4d/	.
=74-	=74-	=74-	=74-	=74-	=74-	=74-	=74-
.	.	.	.	.	.	4e/	.
.	.	.	.	4d\	.	4f/	.
2BB-/	ex-	2B-/	-cel-	1d	.	1g	.
1D	-cel-	2A/	.	.	.	.	.
.	.	4G/	.	2B-/	.	1f	.
.	.	4F/	.	.	.	.	.
=75-	=75-	=75-	=75-	=75-	=75-	=75-	=75-
1C	.	1G	.	1c	.	.	.
.	.	.	.	.	.	2e/	.
1Fl;	-ſis	1Al;	-ſis.	1cl;	-sis.	1fl;	-sis.
*	*Xij	*	*Xij	*	*	*	*
!	!	!LO:PB:g=original	!	!LO:LB:g=original	!	!	!
=76||	=76||	=76||	=76||	=76||	=76||	=76||	=76||
*>D	*	*>D	*	*>D	*	*>D	*
*M2/1	*	*M2/1	*	*M2/1	*	*M2/1	*
*met(C|)	*	*met(C|)	*	*met(C|)	*	*met(C|)	*
!	!	!	!	!	!	!LO:TX:a:t=à 3	!
!LO:TX:a:B:t=Benedictus Tacet	!	!	!	!	!	!LO:TX:t=P:problem:kreska pseudotaktowa	!
0ryy	.	00r	.	1.f	Be-	00r	.
.	.	.	.	2e\	-ne-	.	.
=77-	=77-	=77-	=77-	=77-	=77-	=77-	=77-
0ryy	.	.	.	1d	-di-	.	.
.	.	.	.	2c/	-ctus	.	.
.	.	.	.	4F/	Be-	.	.
!	!	!	!	!LO:TX:t=P:problem:kreska pseudotaktowa	!	!	!
.	.	.	.	4G/	.	.	.
=78-	=78-	=78-	=78-	=78-	=78-	=78-	=78-
0ryy	.	0r	.	4A/	.	1.cc	Be-
.	.	.	.	4B-/	.	.	.
.	.	.	.	4c/	.	.	.
.	.	.	.	4d/	.	.	.
.	.	.	.	4e\	-ne-	.	.
.	.	.	.	4f\	.	.	.
!	!	!	!	!	!	!LO:TX:t=P:problem:kreska pseudotaktowa	!
.	.	.	.	1g	.	2b-\	-ne-
=79-	=79-	=79-	=79-	=79-	=79-	=79-	=79-
!	!	!LO:TX:t=P:problem:kreska pseudotaktowa	!	!	!	!	!
0ryy	.	1r	.	.	.	1a	-di-
.	.	.	.	1f	.	.	.
.	.	1.c	Be-	.	.	1.g,	-ctus
!	!	!	!	!LO:TX:t=P:problem:kreska pseudotaktowa:między nutą a kropką	!	!	!
.	.	.	.	2.e\	.	.	.
=80-	=80-	=80-	=80-	=80-	=80-	=80-	=80-
0ryy	.	.	.	.	.	.	.
.	.	.	.	4c\	.	.	.
*	*	*	*	*	*	*	*ij
!	!	!	!	!	!	!LO:TX:t=P:problem:kreska pseudotaktowa	!
.	.	2B-/	-ne-	4d\	.	2g\	Be-
!	!	!	!	!LO:TX:t=P:problem:kreska pseudotaktowa	!	!	!
.	.	.	.	4e\	.	.	.
!	!	!LO:TX:t=P:problem:kreska pseudotaktowa	!	!	!	!	!
.	.	1A	-di-	4f\	.	2a\	-ne-
.	.	.	.	4e\	.	.	.
.	.	.	.	4d\	.	1cc	-di-
.	.	.	.	4c\	.	.	.
=81-	=81-	=81-	=81-	=81-	=81-	=81-	=81-
0ryy	.	2G,</	-ctus	1d	.	.	.
!	!	!	!	!	!	!LO:SIC:v:t=custos cc	!
!	!	!	!	!	!	!LO:TX:t=P:problem:kreska pseudotaktowa	!
.	.	2G/	Be-	.	.	2b-\	.
!	!	!	!	!	!	!LO:LB:g=original	!
.	.	2A/	-ne-	2.c\	.	2cc,\	-ctus
*	*	*	*	*	*	*	*Xij
.	.	1c	-di-	.	.	2.g\	Be-
.	.	.	.	4d\	.	.	.
=82-	=82-	=82-	=82-	=82-	=82-	=82-	=82-
0ryy	.	.	.	2e\	-di-	.	.
.	.	.	.	.	.	4a\	.
.	.	2B-/	.	1f	.	2b-\	-ne-
.	.	1c	.	.	.	2a\	.
!	!	!	!	!	!	!LO:TX:t=P:problem:kreska pseudotaktowa	!
.	.	.	.	2e\	.	2g\	.
=83-	=83-	=83-	=83-	=83-	=83-	=83-	=83-
!	!	!LO:TX:t=P:problem:kreska pseudotaktowa	!	!LO:TX:t=P:problem:kreska pseudotaktowa	!	!	!
0ryy	.	1F	-ctus	0f	-ctus.	2a\	-di-
.	.	.	.	.	.	4f/	.
.	.	.	.	.	.	4g/	.
.	.	2rA	.	.	.	4a\	.
.	.	.	.	.	.	4b-\	.
.	.	2F/	Qui	.	.	4cc\	.
!	!	!	!	!	!	!LO:TX:t=P:problem:kreska pseudotaktowa	!
.	.	.	.	.	.	4a\	.
=84-	=84-	=84-	=84-	=84-	=84-	=84-	=84-
0ryy	.	2G/	ve-	2r	.	2b-\	.
.	.	2A/	.	2c/	Qui	2cc\	.
.	.	2.B-/	.	1d	ve-	2f,</	ctus
.	.	.	.	.	.	2f/	qui
.	.	4A/	.	.	.	.	.
=85-	=85-	=85-	=85-	=85-	=85-	=85-	=85-
0ryy	.	2G/	.	2e\	.	2g\	.
!	!	!	!	!	!	!LO:TX:t=P:problem:kreska pseudotaktowa	!
.	.	2.F/	.	2.f\	.	2a\	ve-
.	.	.	.	.	.	4a\	.
.	.	4G/	.	4e\	.	4g\	.
.	.	4A/	.	4c\	.	1cc	.
!	!	!LO:SIC:v:t=custos c	!	!LO:TX:t=P:problem:kreska pseudotaktowa	!	!	!
!	!	!LO:TX:t=P:problem:kreska pseudotaktowa	!	!	!	!	!
.	.	4B-/	.	4d\	.	.	.
!	!	!LO:LB:g=original	!	!	!	!	!
=86-	=86-	=86-	=86-	=86-	=86-	=86-	=86-
0ryy	.	4c\	.	4e\	.	.	.
.	.	4d\	.	4f\	.	.	.
.	.	4e\	.	1g	.	4b-\	.
!	!	!LO:TX:t=P:problem:kreska pseudotaktowa	!	!	!	!LO:TX:t=P:problem:kreska pseudotaktowa	!
.	.	4f\	.	.	.	4a\	.
.	.	1d	.	.	.	4b-\	.
.	.	.	.	.	.	4a\	.
.	.	.	.	1f	.	4g\	.
.	.	.	.	.	.	4f/	.
=87-	=87-	=87-	=87-	=87-	=87-	=87-	=87-
!	!	!	!	!	!	!LO:TX:t=P:problem:kreska pseudotaktowa	!
0ryy	.	2c,\	-nit	.	.	1g	-nit
.	.	2c\	qui	2e\	.	.	.
!	!	!	!	!LO:TX:t=P:problem:kreska pseudotaktowa	!	!	!
.	.	2.d\	ve-	1f	-nit	2re	.
.	.	.	.	.	.	2f/	qui
.	.	4e\	.	.	.	.	.
=88-	=88-	=88-	=88-	=88-	=88-	=88-	=88-
!	!	!LO:TX:t=P:problem:kreska pseudotaktowa	!	!	!	!	!
0ryy	.	1f	.	2rA	.	2.a\	ve-
.	.	.	.	2F/	qui	.	.
.	.	.	.	.	.	4b-\	.
.	.	2e\	.	2A/	ve-	2cc\	.
!	!	!	!	!LO:SIC:v:t=custos c	!	!LO:TX:t=P:problem:kreska pseudotaktowa	!
!	!	!	!	!LO:TX:t=P:problem:kreska pseudotaktowa	!	!	!
.	.	2d\	.	2B-/	.	2dd\	.
!	!	!	!	!LO:LB:g=original	!	!	!
=89-	=89-	=89-	=89-	=89-	=89-	=89-	=89-
0ryy	.	2e\	.	2c/	.	2g/	.
.	.	4d\	.	2A/	.	1cc	.
.	.	4c\	.	.	.	.	.
!	!	!LO:TX:t=P:problem:kreska pseudotaktowa	!	!	!	!	!
.	.	1d	-nit	2G/	-nit	.	.
.	.	.	.	1f	in	2b-\	.
=90-	=90-	=90-	=90-	=90-	=90-	=90-	=90-
0ryy	.	2r	.	.	.	2a\	.
!	!	!	!	!LO:TX:t=P:problem:kreska pseudotaktowa	!	!	!
.	.	1c	in	2e\	No-	2g\	.
.	.	.	.	2f\	-mi-	2a\	.
!	!	!	!	!	!	!LO:TX:t=P:problem:kreska pseudotaktowa	!
.	.	2B-/	No-	1g	-ne	2b-\	.
=91-	=91-	=91-	=91-	=91-	=91-	=91-	=91-
0ryy	.	2c\	-mi-	.	.	2a\	.
.	.	2d\	-ne	1f	.	4g/	.
!	!	!	!	!	!	!LO:TX:t=P:problem:kreska pseudotaktowa	!
.	.	.	.	.	.	4f/	.
!	!	!	!	!	!	!LO:LB:g=original	!
.	.	2.c/	Do-	.	.	2g/	-nit
!	!	!	!	!LO:TX:t=P:problem:kreska pseudotaktowa	!	!	!
.	.	.	.	2e\	Do-	1cc	in
.	.	4B-/	.	.	.	.	.
=92-	=92-	=92-	=92-	=92-	=92-	=92-	=92-
0ryy	.	2A/	.	1.f	.	.	.
.	.	2B-/	-mi-	.	.	2b-\	No-
.	.	2F,/	-ni	.	.	2cc\	.
!	!	!	!	!	!	!LO:TX:t=P:problem:kreska pseudotaktowa	!
.	.	1f\	in	2B-/	mi-	2dd\	-mi-
=93-	=93-	=93-	=93-	=93-	=93-	=93-	=93-
!	!	!	!	!LO:TX:t=P:problem:kreska pseudotaktowa	!	!	!
0ryy	.	.	.	1c	-ni	2.cc\	-ne
!	!	!LO:SIC:v:t=custos f	!	!	!	!	!
!	!	!LO:TX:t=P:problem:kreska pseudotaktowa	!	!	!	!	!
.	.	2e\	No-	.	.	.	.
.	.	.	.	.	.	4b-\	.
!	!	!LO:LB:g=original	!	!LO:TX:t=P:problem:kreska pseudotaktowa	!	!	!
.	.	2f\	-mi-	1rg	.	2a\	Do-
!	!	!	!	!	!	!LO:TX:t=P:problem:kreska pseudotaktowa	!
.	.	2g\	-ne	.	.	2b-\	-mi-
=94-	=94-	=94-	=94-	=94-	=94-	=94-	=94-
!	!	!	!	!	!	!LO:TX:t=P:problem:kreska pseudotaktowa	!
0ryy	.	2f\	Do-	2r	.	1cc	-ni
.	.	2e\	.	1c	in	.	.
!	!	!LO:TX:t=P:problem:kreska pseudotaktowa	!	!	!	!	!
.	.	1d	.	.	.	2r	.
.	.	.	.	2B-/	No-	2f/	in
=95-	=95-	=95-	=95-	=95-	=95-	=95-	=95-
0ryy	.	2c\	.	2c\	-mi-	2e/	No-
!	!	!	!	!LO:TX:t=P:problem:kreska pseudotaktowa	!	!LO:TX:t=P:problem:kreska pseudotaktowa	!
.	.	1f	.	2d\	-ne	2f/	.
.	.	.	.	2.c/	Do-	2g/	.
!	!	!LO:TX:t=P:problem:kreska pseudotaktowa	!	!	!	!	!
.	.	2e\	.	.	.	2.a/	.
.	.	.	.	4B-/	.	.	.
=96-	=96-	=96-	=96-	=96-	=96-	=96-	=96-
0ryy	.	2c\	.	2A/	.	.	.
.	.	.	.	.	.	4g/	.
!	!	!	!	!LO:TX:t=P:problem:kreska pseudotaktowa	!	!	!
.	.	1d	.	2B-/	.	1f	-mi-
.	.	.	.	1G	.	.	.
!	!	!	!	!	!	!LO:TX:t=P:problem:kreska pseudotaktowa	!
.	.	4c/	.	.	.	2e/	-ne
.	.	4B-/	-mi-	.	.	.	.
=97-	=97-	=97-	=97-	=97-	=97-	=97-	=97-
!	!	!LO:TX:t=P:problem:kreska pseudotaktowa	!	!	!	!	!
0ryy	.	1A	-ni	2F/	.	4f/	Do-
.	.	.	.	.	.	4g/	.
.	.	.	.	2.F/	.	4a/	.
.	.	.	.	.	.	4b-/	.
.	.	1r	.	.	.	2cc\	.
.	.	.	.	4G/	.	.	.
.	.	.	.	4A/	.	4c/	.
.	.	.	.	4B-/	.	4d/	.
=98-	=98-	=98-	=98-	=98-	=98-	=98-	=98-
0ryy	.	2r	.	4c\	.	4e/	.
.	.	.	.	4d\	.	4f/	.
.	.	1c	in	4e\	.	2.g\	.
!	!	!	!	!LO:TX:t=P:problem:kreska pseudotaktowa	!	!	!
.	.	.	.	4f\	.	.	.
.	.	.	.	4e\	.	.	.
.	.	.	.	4d\	.	4a\	.
!	!	!LO:TX:t=P:problem:kreska pseudotaktowa	!	!	!	!	!
.	.	2B-/	No-	1g	.	4b-\	.
!	!	!	!	!	!	!LO:TX:t=P:problem:kreska pseudotaktowa	!
.	.	.	.	.	.	4cc\	.
=99-	=99-	=99-	=99-	=99-	=99-	=99-	=99-
0ryy	.	2c\	-mi-	.	.	2a\	.
.	.	2d\	-ne	1f	.	4g/	mi-
.	.	.	.	.	.	4f/	.
!	!	!	!	!	!	!LO:TX:t=P:problem:kreska pseudotaktowa	!
.	.	2.c/	Do-	.	.	1g	-ni
.	.	.	.	2e\	-mi-	.	.
.	.	4B-/	.	.	.	.	.
=100-	=100-	=100-	=100-	=100-	=100-	=100-	=100-
!	!	!	!	!LO:TX:b:t=Osanna da\nCapo.	!	!	!
0ryy	.	2A/	.	[0fl;	-ni.	2r	.
.	.	4F/	.	.	.	1cc	in
!	!	!LO:SIC:v:t=custos A	!	!	!	!	!
!	!	!LO:TX:t=P:problem:kreska pseudotaktowa	!	!	!	!	!
.	.	4G/	.	.	.	.	.
!	!	!LO:LB:g=original	!	!	!	!	!
.	.	4A/	.	.	.	.	.
.	.	4F/	.	.	.	.	.
!	!	!LO:TX:t=P:problem:kreska pseudotaktowa	!	!	!	!	!
.	.	2B-/	.	.	.	2b-\	No-
=101-	=101-	=101-	=101-	=101-	=101-	=101-	=101-
0ryy	.	2F/	.	0f_	.	2cc\	-mi-
.	.	2B-/	.	.	.	2dd\	-ne
.	.	2A/	.	.	.	2cc\	D(o-
.	.	2B-/	-mi-	.	.	2b-\	-mi)-
=102-	=102-	=102-	=102-	=102-	=102-	=102-	=102-
!LO:TX:b:t=Osanna da Capo.	!	!LO:TX:b:t=Osanna ut Supra	!	!	!	!LO:TX:b:t=Osanna\nDa Capo.	!
0ryy	.	0Fl;	-ni.	0f]	.	0al;	-ni.
==	==	==	==	==	==	==	==
*-	*-	*-	*-	*-	*-	*-	*-
!!!system-decoration: [g1]
!!!RDF**kern: > = above
!!!RDF**kern: < = below
!!!RDF**kern: l = terminal long
!!!ENC: Andrzej Kubiczek
!!!END: 2021-03-16
!!!ENC: Krzysztof Stępień
!!!END: 2021-02-26
